;FLAVOR:Marlin
;TIME:606
;Filament used: 0.554086m
;Layer height: 0.2
;MINX:23.3
;MINY:55.801
;MINZ:0.3
;MAXX:126.7
;MAXY:84.185
;MAXZ:1.5
;Generated with Cura_SteamEngine 4.9.1
M104 S220
M105
M109 S220
M82 ;absolute extrusion mode
G21       ;metric values
M355 S1 C1 P125; Red LED blue on 1/2
G90       ;absolute positioning
M82       ;set extruder to absolute mode
M107      ;start with the fan off
G28 X0 Y0 ;home X/Y
G28 Z0    ;home Z
G92 E0    ;zero the extruded length
M355 S1 C3 P125; Blue LED blue on 1/2
G29       ;initiate auto bed leveling sequence
M355 S1 C4 B10; White LED blue on 1/2
G92 E0
G92 E0
G1 F1500 E-6.5
;LAYER_COUNT:7
;LAYER:0
M107
G0 F3600 X27.405 Y56.336 Z0.3
;TYPE:SKIRT
G1 F1500 E0
G1 F1800 X27.964 Y56.129 E0.02677
G1 X28.665 Y55.946 E0.0593
G1 X29.211 Y55.857 E0.08414
G1 X29.767 Y55.813 E0.10918
G1 X29.913 Y55.808 E0.11574
G1 X30.521 Y55.801 E0.14304
G1 X119.48 Y55.801 E4.1374
G1 X120.06 Y55.809 E4.16345
G1 X120.669 Y55.843 E4.19084
G1 X121.005 Y55.892 E4.20608
G1 X121.595 Y56.01 E4.2331
G1 X122.191 Y56.18 E4.26093
G1 X122.793 Y56.422 E4.29006
G1 X123.352 Y56.712 E4.31834
G1 X123.87 Y57.044 E4.34596
G1 X124.285 Y57.37 E4.36966
G1 X124.708 Y57.756 E4.39537
G1 X125.086 Y58.156 E4.42008
G1 X125.463 Y58.64 E4.44763
G1 X125.752 Y59.097 E4.47191
G1 X126.026 Y59.609 E4.49798
G1 X126.289 Y60.221 E4.52789
G1 X126.468 Y60.793 E4.5548
G1 X126.593 Y61.361 E4.58092
G1 X126.671 Y62.003 E4.60996
G1 X126.691 Y62.408 E4.62816
G1 X126.7 Y63.081 E4.65838
G1 X126.7 Y76.933 E5.28036
G1 X126.691 Y77.598 E5.31022
G1 X126.652 Y78.211 E5.3378
G1 X126.567 Y78.771 E5.36323
G1 X126.432 Y79.342 E5.38958
G1 X126.192 Y80.031 E5.42234
G1 X125.91 Y80.633 E5.45219
G1 X125.545 Y81.239 E5.48395
G1 X125.16 Y81.757 E5.51293
G1 X124.713 Y82.247 E5.54271
G1 X124.306 Y82.62 E5.5675
G1 X123.687 Y83.082 E5.60218
G1 X123.277 Y83.327 E5.62363
G1 X122.827 Y83.557 E5.64632
G1 X122.385 Y83.743 E5.66785
G1 X121.846 Y83.923 E5.69337
G1 X121.381 Y84.041 E5.71491
G1 X120.887 Y84.127 E5.73742
G1 X120.093 Y84.185 E5.77317
G1 X119.287 Y84.149 E5.80939
G1 X118.692 Y84.062 E5.83639
G1 X118.19 Y83.942 E5.85957
G1 X117.539 Y83.722 E5.89043
G1 X117.022 Y83.497 E5.91574
G1 X116.427 Y83.216 E5.94529
G1 X113.882 Y82.056 E6.07087
G1 X111.372 Y80.997 E6.19319
G1 X108.842 Y80.012 E6.3151
G1 X106.231 Y79.08 E6.43958
G1 X103.641 Y78.238 E6.56187
G1 X101.013 Y77.465 E6.68487
G1 X98.361 Y76.764 E6.80803
G1 X95.694 Y76.142 E6.931
G1 X93 Y75.592 E7.05446
G1 X90.303 Y75.12 E7.1774
G1 X87.613 Y74.728 E7.29946
G1 X84.889 Y74.41 E7.4226
G1 X82.17 Y74.169 E7.54516
G1 X79.428 Y74.004 E7.66851
G1 X76.709 Y73.918 E7.79065
G1 X73.955 Y73.909 E7.91431
G1 X71.206 Y73.977 E8.03778
G1 X68.488 Y74.123 E8.16
G1 X65.783 Y74.343 E8.28186
G1 X63.039 Y74.646 E8.40582
G1 X60.317 Y75.024 E8.52921
G1 X57.634 Y75.474 E8.65136
G1 X54.926 Y76.008 E8.7753
G1 X52.291 Y76.605 E8.89661
G1 X49.612 Y77.292 E9.02079
G1 X47.004 Y78.04 E9.14262
G1 X44.355 Y78.882 E9.26742
G1 X41.803 Y79.773 E9.38879
G1 X39.202 Y80.766 E9.5138
G1 X36.731 Y81.789 E9.63389
G1 X33.883 Y83.069 E9.77409
G1 X32.76 Y83.595 E9.82977
G1 X32.414 Y83.734 E9.84651
G1 X31.844 Y83.924 E9.87349
G1 X31.381 Y84.041 E9.89493
G1 X30.887 Y84.127 E9.91745
G1 X30.093 Y84.185 E9.95319
G1 X29.287 Y84.149 E9.98942
G1 X28.692 Y84.062 E10.01642
G1 X28.19 Y83.942 E10.0396
G1 X27.502 Y83.706 E10.07225
G1 X27.01 Y83.484 E10.09649
G1 X26.516 Y83.213 E10.12179
G1 X26.057 Y82.906 E10.14658
G1 X25.604 Y82.542 E10.17268
G1 X25.149 Y82.108 E10.20091
G1 X24.708 Y81.591 E10.23142
G1 X24.355 Y81.088 E10.25902
G1 X24.012 Y80.481 E10.29032
G1 X23.776 Y79.954 E10.31625
G1 X23.533 Y79.209 E10.35143
G1 X23.394 Y78.553 E10.38154
G1 X23.316 Y77.76 E10.41732
G1 X23.308 Y77.578 E10.4255
G1 X23.3 Y76.921 E10.455
G1 X23.3 Y62.98 E11.08097
G1 X23.308 Y62.436 E11.1054
G1 X23.339 Y61.888 E11.13005
G1 X23.411 Y61.338 E11.15495
G1 X23.519 Y60.841 E11.17779
G1 X23.684 Y60.299 E11.20323
G1 X23.926 Y59.699 E11.23228
G1 X24.224 Y59.127 E11.26124
G1 X24.454 Y58.768 E11.28038
G1 X24.795 Y58.307 E11.30613
G1 X25.218 Y57.824 E11.33496
G1 X25.579 Y57.486 E11.35716
G1 X25.977 Y57.161 E11.38023
G1 X26.368 Y56.888 E11.40165
G1 X26.818 Y56.621 E11.42514
G1 X27.405 Y56.336 E11.45444
G1 F1500 E4.95444
;MESH:ServoArm-Body.stl
G0 F3600 X29.899 Y58.343
G0 X30.022 Y59.62
G0 X62.154 Y65.33
G0 X62.085 Y65.401
;TYPE:WALL-INNER
G1 F1500 E11.45444
G1 F1800 X36.965 Y65.401 E12.58236
G1 X36.397 Y65.443 E12.60793
G1 X35.808 Y65.576 E12.63504
G1 X35.23 Y65.801 E12.66289
G1 X34.704 Y66.102 E12.6901
G1 X34.232 Y66.475 E12.71712
G1 X33.818 Y66.914 E12.74421
G1 X33.473 Y67.41 E12.77134
G1 X33.204 Y67.95 E12.79843
G1 X33.017 Y68.524 E12.82554
G1 X32.919 Y69.113 E12.85235
G1 X32.9 Y69.488 E12.8692
G1 X32.9 Y77.477 E13.22792
G1 X32.842 Y78.069 E13.25463
G1 X32.667 Y78.634 E13.28119
G1 X32.391 Y79.138 E13.30699
G1 X32.02 Y79.579 E13.33287
G1 X31.567 Y79.938 E13.35882
G1 X31.04 Y80.206 E13.38537
G1 X30.494 Y80.355 E13.41078
G1 X29.915 Y80.396 E13.43684
G1 X29.36 Y80.327 E13.46195
G1 X28.796 Y80.137 E13.48868
G1 X28.311 Y79.855 E13.51387
G1 X27.872 Y79.468 E13.54014
G1 X27.526 Y79.01 E13.56592
G1 X27.276 Y78.491 E13.59178
G1 X27.157 Y78.068 E13.61151
G1 X27.1 Y77.501 E13.6371
G1 X27.1 Y62.52 E14.30977
G1 X27.156 Y61.942 E14.33584
G1 X27.32 Y61.397 E14.3614
G1 X27.594 Y60.885 E14.38747
G1 X27.945 Y60.457 E14.41232
G1 X28.388 Y60.092 E14.4381
G1 X28.895 Y59.821 E14.46391
G1 X29.446 Y59.656 E14.48974
G1 X30.022 Y59.601 E14.51572
G1 X119.976 Y59.601 E18.55476
G1 X120.568 Y59.659 E18.58147
G1 X121.106 Y59.822 E18.60671
G1 X121.609 Y60.09 E18.6323
G1 X121.956 Y60.364 E18.65215
G1 X122.326 Y60.772 E18.67688
G1 X122.563 Y61.15 E18.69691
G1 X122.772 Y61.657 E18.72154
G1 X122.885 Y62.217 E18.74719
G1 X122.9 Y62.52 E18.76081
G1 X122.9 Y77.477 E19.4324
G1 X122.842 Y78.073 E19.45929
G1 X122.724 Y78.491 E19.47879
G1 X122.474 Y79.01 E19.50465
G1 X122.128 Y79.468 E19.53043
G1 X121.685 Y79.859 E19.55696
G1 X121.048 Y80.203 E19.58946
G1 X120.492 Y80.355 E19.61535
G1 X119.915 Y80.396 E19.64132
G1 X119.36 Y80.327 E19.66643
G1 X118.796 Y80.137 E19.69315
G1 X118.311 Y79.855 E19.71834
G1 X117.872 Y79.468 E19.74462
G1 X117.526 Y79.01 E19.7704
G1 X117.276 Y78.491 E19.79626
G1 X117.158 Y78.073 E19.81576
G1 X117.1 Y77.482 E19.84243
G1 X117.1 Y69.483 E20.20159
G1 X117.057 Y68.898 E20.22793
G1 X116.918 Y68.292 E20.25585
G1 X116.7 Y67.73 E20.28291
G1 X116.398 Y67.205 E20.31011
G1 X116.024 Y66.732 E20.33718
G1 X115.586 Y66.319 E20.36421
G1 X115.09 Y65.973 E20.39137
G1 X114.551 Y65.705 E20.4184
G1 X113.978 Y65.519 E20.44545
G1 X113.387 Y65.419 E20.47236
G1 X113.012 Y65.401 E20.48922
G1 X87.92 Y65.401 E21.61588
G1 X87.886 Y66.276 E21.6552
G1 X87.775 Y66.835 E21.68079
G1 X87.558 Y67.362 E21.70638
G1 X87.228 Y67.854 E21.73298
G1 X86.841 Y68.238 E21.75746
G1 X86.355 Y68.561 E21.78366
G1 X85.842 Y68.774 E21.8086
G1 X85.275 Y68.886 E21.83455
G1 X84.992 Y68.901 E21.84728
G1 X65.026 Y68.901 E22.74377
G1 X64.413 Y68.839 E22.77144
G1 X63.897 Y68.681 E22.79567
G1 X63.378 Y68.401 E22.82215
G1 X62.935 Y68.034 E22.84798
G1 X62.591 Y67.611 E22.87246
G1 X62.375 Y67.23 E22.89212
G1 X62.184 Y66.684 E22.9181
G1 X62.103 Y66.132 E22.94315
G1 X62.085 Y65.401 E22.97598
G0 F3600 X62.154 Y65.33
G0 X63.798 Y67.124
G0 X64.614 Y67.585
G0 X65.267 Y67.584
G1 F1800 X65.729 Y67.431 E22.99783
G1 X66.174 Y67.097 E23.02282
G1 X66.445 Y66.697 E23.04451
G1 X66.587 Y66.241 E23.06595
G1 X66.587 Y65.753 E23.08787
G1 X66.406 Y65.224 E23.11297
G1 X66.061 Y64.795 E23.13769
G1 X65.649 Y64.532 E23.15964
G1 X65.11 Y64.395 E23.18461
G1 X64.42 Y64.501 E23.21595
G1 X63.936 Y64.8 E23.2415
G1 X63.631 Y65.164 E23.26282
G1 X63.445 Y65.605 E23.28431
G1 X63.396 Y66.091 E23.30624
G1 X63.521 Y66.627 E23.33096
G1 X63.827 Y67.097 E23.35614
G1 X64.211 Y67.398 E23.37805
G1 X64.72 Y67.582 E23.40235
G1 X65.267 Y67.584 E23.42691
G0 F3600 X65.282 Y67.682
G0 X75.282 Y67.682
G0 X75.267 Y67.584
G1 F1800 X75.729 Y67.431 E23.44876
G1 X76.174 Y67.097 E23.47375
G1 X76.445 Y66.697 E23.49544
G1 X76.587 Y66.241 E23.51688
G1 X76.587 Y65.753 E23.5388
G1 X76.406 Y65.224 E23.5639
G1 X76.061 Y64.795 E23.58862
G1 X75.649 Y64.532 E23.61057
G1 X75.11 Y64.395 E23.63554
G1 X74.42 Y64.501 E23.66688
G1 X73.936 Y64.8 E23.69243
G1 X73.631 Y65.164 E23.71375
G1 X73.445 Y65.605 E23.73524
G1 X73.396 Y66.091 E23.75717
G1 X73.521 Y66.627 E23.78189
G1 X73.827 Y67.097 E23.80707
G1 X74.211 Y67.398 E23.82898
G1 X74.72 Y67.582 E23.85328
G1 X75.267 Y67.584 E23.87784
G0 F3600 X75.282 Y67.682
G0 X85.282 Y67.682
G0 X85.267 Y67.584
G1 F1800 X85.729 Y67.431 E23.89969
G1 X86.174 Y67.097 E23.92468
G1 X86.445 Y66.697 E23.94637
G1 X86.587 Y66.241 E23.96782
G1 X86.587 Y65.753 E23.98973
G1 X86.406 Y65.224 E24.01483
G1 X86.061 Y64.795 E24.03955
G1 X85.649 Y64.532 E24.0615
G1 X85.11 Y64.395 E24.08647
G1 X84.42 Y64.501 E24.11781
G1 X83.936 Y64.8 E24.14336
G1 X83.631 Y65.164 E24.16468
G1 X83.445 Y65.605 E24.18617
G1 X83.396 Y66.091 E24.2081
G1 X83.521 Y66.627 E24.23282
G1 X83.827 Y67.097 E24.258
G1 X84.211 Y67.398 E24.27991
G1 X84.72 Y67.582 E24.30421
G1 X85.267 Y67.584 E24.32877
G0 F3600 X85.203 Y67.184
;TYPE:WALL-OUTER
G1 F1800 X85.541 Y67.072 E24.34476
G1 X85.88 Y66.817 E24.36381
G1 X86.081 Y66.521 E24.37987
G1 X86.187 Y66.18 E24.39591
G1 X86.187 Y65.82 E24.41207
G1 X86.05 Y65.42 E24.43105
G1 X85.79 Y65.097 E24.44967
G1 X85.488 Y64.904 E24.46577
G1 X85.09 Y64.803 E24.4842
G1 X84.561 Y64.884 E24.50823
G1 X84.201 Y65.106 E24.52722
G1 X83.976 Y65.375 E24.54297
G1 X83.837 Y65.705 E24.55905
G1 X83.801 Y66.065 E24.57529
G1 X83.895 Y66.468 E24.59387
G1 X84.126 Y66.823 E24.61289
G1 X84.407 Y67.044 E24.62894
G1 X84.791 Y67.182 E24.64726
G1 X85.203 Y67.184 E24.66576
G0 F3600 X85.392 Y67.122
G0 X85.548 Y67.597
G0 X75.201 Y67.683
G0 X75.203 Y67.184
G1 F1800 X75.541 Y67.072 E24.68175
G1 X75.88 Y66.817 E24.7008
G1 X76.081 Y66.521 E24.71686
G1 X76.187 Y66.18 E24.7329
G1 X76.187 Y65.82 E24.74906
G1 X76.05 Y65.42 E24.76805
G1 X75.79 Y65.097 E24.78667
G1 X75.488 Y64.904 E24.80276
G1 X75.09 Y64.803 E24.8212
G1 X74.561 Y64.884 E24.84523
G1 X74.201 Y65.106 E24.86422
G1 X73.976 Y65.375 E24.87996
G1 X73.837 Y65.705 E24.89604
G1 X73.801 Y66.065 E24.91229
G1 X73.895 Y66.468 E24.93087
G1 X74.126 Y66.823 E24.94988
G1 X74.407 Y67.044 E24.96594
G1 X74.791 Y67.182 E24.98426
G1 X75.203 Y67.184 E25.00276
G0 F3600 X75.392 Y67.122
G0 X75.548 Y67.597
G0 X65.201 Y67.683
G0 X65.203 Y67.184
G1 F1800 X65.541 Y67.072 E25.01875
G1 X65.88 Y66.817 E25.03779
G1 X66.081 Y66.521 E25.05386
G1 X66.187 Y66.18 E25.06989
G1 X66.187 Y65.82 E25.08606
G1 X66.05 Y65.42 E25.10504
G1 X65.79 Y65.097 E25.12366
G1 X65.488 Y64.904 E25.13975
G1 X65.09 Y64.803 E25.15819
G1 X64.561 Y64.884 E25.18222
G1 X64.201 Y65.106 E25.20121
G1 X63.976 Y65.375 E25.21696
G1 X63.837 Y65.705 E25.23303
G1 X63.801 Y66.065 E25.24928
G1 X63.895 Y66.468 E25.26786
G1 X64.126 Y66.823 E25.28688
G1 X64.407 Y67.044 E25.30293
G1 X64.791 Y67.182 E25.32125
G1 X65.203 Y67.184 E25.33975
G0 F3600 X65.392 Y67.122
G0 X65.548 Y67.597
G0 X64.714 Y67.621
G0 X62.122 Y65.555
G0 X61.695 Y65.801
G1 F1800 X36.98 Y65.801 E26.44948
G1 X36.456 Y65.84 E26.47308
G1 X35.925 Y65.96 E26.49752
G1 X35.403 Y66.163 E26.52267
G1 X34.929 Y66.434 E26.54718
G1 X34.503 Y66.771 E26.57157
G1 X34.129 Y67.167 E26.59603
G1 X33.818 Y67.614 E26.62048
G1 X33.575 Y68.102 E26.64496
G1 X33.407 Y68.619 E26.66937
G1 X33.317 Y69.156 E26.69382
G1 X33.3 Y69.498 E26.70919
G1 X33.3 Y77.496 E27.06831
G1 X33.236 Y78.148 E27.09773
G1 X33.036 Y78.793 E27.12805
G1 X32.724 Y79.363 E27.15723
G1 X32.301 Y79.866 E27.18674
G1 X31.78 Y80.279 E27.21659
G1 X31.186 Y80.581 E27.24651
G1 X30.561 Y80.751 E27.27559
G1 X29.905 Y80.798 E27.30512
G1 X29.27 Y80.719 E27.33386
G1 X28.629 Y80.503 E27.36423
G1 X28.078 Y80.182 E27.39286
G1 X27.577 Y79.741 E27.42283
G1 X27.181 Y79.217 E27.45232
G1 X26.901 Y78.634 E27.48136
G1 X26.764 Y78.149 E27.50399
G1 X26.704 Y77.644 E27.52682
G1 X26.7 Y77.501 E27.53325
G1 X26.7 Y62.506 E28.20654
G1 X26.762 Y61.862 E28.23559
G1 X26.949 Y61.242 E28.26467
G1 X27.259 Y60.663 E28.29416
G1 X27.663 Y60.171 E28.32274
G1 X28.161 Y59.76 E28.35173
G1 X28.742 Y59.45 E28.3813
G1 X29.368 Y59.262 E28.41065
G1 X30.005 Y59.201 E28.43938
G1 X119.995 Y59.201 E32.48004
G1 X120.648 Y59.265 E32.5095
G1 X121.258 Y59.45 E32.53812
G1 X121.829 Y59.754 E32.56717
G1 X122.23 Y60.07 E32.59009
G1 X122.647 Y60.531 E32.61801
G1 X122.919 Y60.964 E32.64097
G1 X123.156 Y61.539 E32.66889
G1 X123.284 Y62.171 E32.69785
G1 X123.3 Y62.501 E32.71268
G1 X123.3 Y77.496 E33.38597
G1 X123.236 Y78.149 E33.41543
G1 X123.099 Y78.634 E33.43806
G1 X122.819 Y79.217 E33.4671
G1 X122.423 Y79.741 E33.49659
G1 X121.922 Y80.182 E33.52656
G1 X121.646 Y80.361 E33.54133
G1 X121.186 Y80.58 E33.56421
G1 X120.561 Y80.751 E33.5933
G1 X119.905 Y80.798 E33.62284
G1 X119.27 Y80.719 E33.65157
G1 X118.629 Y80.503 E33.68194
G1 X118.078 Y80.182 E33.71057
G1 X117.577 Y79.741 E33.74054
G1 X117.181 Y79.217 E33.77003
G1 X116.901 Y78.634 E33.79907
G1 X116.764 Y78.149 E33.8217
G1 X116.7 Y77.501 E33.85094
G1 X116.7 Y69.498 E34.21028
G1 X116.66 Y68.958 E34.2346
G1 X116.535 Y68.41 E34.25983
G1 X116.338 Y67.903 E34.28426
G1 X116.066 Y67.43 E34.30876
G1 X115.728 Y67.003 E34.33321
G1 X115.333 Y66.63 E34.3576
G1 X114.885 Y66.318 E34.38212
G1 X114.399 Y66.076 E34.40649
G1 X113.882 Y65.908 E34.4309
G1 X113.344 Y65.817 E34.4554
G1 X113.003 Y65.801 E34.47073
G1 X88.305 Y65.801 E35.5797
G1 X88.285 Y66.319 E35.60298
G1 X88.159 Y66.953 E35.632
G1 X87.913 Y67.551 E35.66103
G1 X87.537 Y68.111 E35.69132
G1 X87.097 Y68.548 E35.71917
G1 X86.545 Y68.915 E35.74893
G1 X85.957 Y69.159 E35.77751
G1 X85.325 Y69.284 E35.80644
G1 X84.994 Y69.301 E35.82132
G1 X65.006 Y69.301 E36.71881
G1 X64.336 Y69.233 E36.74905
G1 X63.742 Y69.051 E36.77694
G1 X63.149 Y68.732 E36.80718
G1 X62.651 Y68.318 E36.83626
G1 X62.26 Y67.839 E36.86402
G1 X62.008 Y67.393 E36.88702
G1 X61.794 Y66.781 E36.91613
G1 X61.704 Y66.167 E36.944
G1 X61.695 Y65.801 E36.96043
G0 F3600 X61.495 Y65.801
G0 X61.495 Y65.301
G0 X62.493 Y66.1
;TYPE:SKIN
G1 F1800 X62.465 Y65.011 E37.00935
G1 X36.951 Y65.011 E38.15496
G1 X36.339 Y65.057 E38.18251
G1 X35.693 Y65.202 E38.21224
G1 X35.062 Y65.448 E38.24265
G1 X34.485 Y65.778 E38.2725
G1 X33.968 Y66.187 E38.3021
G1 X33.514 Y66.668 E38.3318
G1 X33.136 Y67.211 E38.3615
G1 X32.842 Y67.802 E38.39114
G1 X32.637 Y68.431 E38.42085
G1 X32.531 Y69.071 E38.44997
G1 X32.51 Y69.478 E38.46827
G1 X32.51 Y77.459 E38.82663
G1 X32.458 Y77.99 E38.85059
G1 X32.305 Y78.483 E38.87376
G1 X32.068 Y78.917 E38.89597
G1 X31.749 Y79.296 E38.91821
G1 X31.353 Y79.61 E38.9409
G1 X30.901 Y79.84 E38.96367
G1 X30.434 Y79.967 E38.98541
G1 X29.92 Y80.004 E39.00854
G1 X29.45 Y79.945 E39.02981
G1 X28.957 Y79.779 E39.05317
G1 X28.54 Y79.537 E39.07482
G1 X28.16 Y79.202 E39.09757
G1 X27.859 Y78.803 E39.12001
G1 X27.643 Y78.355 E39.14234
G1 X27.541 Y77.992 E39.15927
G1 X27.49 Y77.482 E39.18228
G1 X27.49 Y62.537 E39.85333
G1 X27.54 Y62.022 E39.87656
G1 X27.684 Y61.544 E39.89898
G1 X27.92 Y61.103 E39.92144
G1 X28.223 Y60.733 E39.94291
G1 X28.606 Y60.418 E39.96518
G1 X29.044 Y60.183 E39.9875
G1 X29.523 Y60.04 E40.00994
G1 X30.039 Y59.991 E40.03322
G1 X119.958 Y59.991 E44.07068
G1 X120.492 Y60.043 E44.09478
G1 X120.952 Y60.183 E44.11637
G1 X121.397 Y60.419 E44.13898
G1 X121.689 Y60.65 E44.1557
G1 X122.016 Y61.011 E44.17757
G1 X122.212 Y61.324 E44.19415
G1 X122.398 Y61.774 E44.21602
G1 X122.497 Y62.261 E44.23833
G1 X122.51 Y62.52 E44.24997
G1 X122.51 Y77.46 E44.9208
G1 X122.458 Y78.001 E44.9452
G1 X122.359 Y78.35 E44.96149
G1 X122.141 Y78.803 E44.98406
G1 X121.837 Y79.205 E45.00669
G1 X121.461 Y79.537 E45.02922
G1 X120.903 Y79.839 E45.05771
G1 X120.427 Y79.969 E45.07986
G1 X119.926 Y80.005 E45.10241
G1 X119.449 Y79.945 E45.124
G1 X118.957 Y79.779 E45.14732
G1 X118.54 Y79.537 E45.16896
G1 X118.16 Y79.202 E45.19171
G1 X117.859 Y78.803 E45.21415
G1 X117.64 Y78.349 E45.23678
G1 X117.543 Y78.004 E45.25288
G1 X117.49 Y77.463 E45.27728
G1 X117.49 Y69.469 E45.63622
G1 X117.443 Y68.84 E45.66455
G1 X117.292 Y68.177 E45.69508
G1 X117.053 Y67.561 E45.72475
G1 X116.722 Y66.986 E45.75454
G1 X116.312 Y66.468 E45.7842
